SVG_Azure_Grouped/Compute/Kubernetes Node Pool.svg

<?xml version="1.0" encoding="UTF-8" standalone="no"?>
<!-- Generated by Microsoft Visio, SVG Export Kubernetes Node Pool.svg Page-1 -->

<svg
   xmlns:dc="http://purl.org/dc/elements/1.1/"
   xmlns:cc="http://creativecommons.org/ns#"
   xmlns:rdf="http://www.w3.org/1999/02/22-rdf-syntax-ns#"
   xmlns:svg="http://www.w3.org/2000/svg"
   xmlns="http://www.w3.org/2000/svg"
   xmlns:xlink="http://www.w3.org/1999/xlink"
   xmlns:sodipodi="http://sodipodi.sourceforge.net/DTD/sodipodi-0.dtd"
   xmlns:inkscape="http://www.inkscape.org/namespaces/inkscape"
   width="0.78742176in"
   height="0.74823451in"
   viewBox="0 0 56.694275 53.872813"
   xml:space="preserve"
   class="st5"
   version="1.1"
   id="svg70"
   sodipodi:docname="Kubernetes Node Pool.svg"
   style="font-size:12px;overflow:visible;color-interpolation-filters:sRGB;fill:none;fill-rule:evenodd;stroke-linecap:square;stroke-miterlimit:3"
   inkscape:version="0.92.5 (2060ec1f9f, 2020-04-08)"><metadata
   id="metadata74"><rdf:RDF><cc:Work
       rdf:about=""><dc:format>image/svg+xml</dc:format><dc:type
         rdf:resource="http://purl.org/dc/dcmitype/StillImage" /></cc:Work></rdf:RDF></metadata><sodipodi:namedview
   pagecolor="#ffffff"
   bordercolor="#666666"
   borderopacity="1"
   objecttolerance="10"
   gridtolerance="10"
   guidetolerance="10"
   inkscape:pageopacity="0"
   inkscape:pageshadow="2"
   inkscape:window-width="640"
   inkscape:window-height="480"
   id="namedview72"
   showgrid="false"
   inkscape:zoom="1.4522462"
   inkscape:cx="37.799382"
   inkscape:cy="35.908273"
   inkscape:window-x="0"
   inkscape:window-y="0"
   inkscape:window-maximized="0"
   inkscape:current-layer="svg70" />
	<style
   type="text/css"
   id="style2">
	<![CDATA[
		.st1 {fill:url(#grad0-6);stroke:none;stroke-linecap:butt;stroke-width:34}
		.st2 {fill:#341a6e;stroke:none;stroke-linecap:butt;stroke-width:34}
		.st3 {fill:#949494;stroke:none;stroke-linecap:butt;stroke-width:34}
		.st4 {fill:#a3a3a3;stroke:none;stroke-linecap:butt;stroke-width:34}
		.st5 {fill:none;fill-rule:evenodd;font-size:12px;overflow:visible;stroke-linecap:square;stroke-miterlimit:3}
	]]>
	</style>

	<defs
   id="Patterns_And_Gradients">
		<linearGradient
   id="grad0-6"
   x1="0"
   y1="0"
   x2="1"
   y2="0">
			<stop
   offset="0"
   stop-color="#b77af4"
   stop-opacity="1"
   id="stop4" />
			<stop
   offset="0.995"
   stop-color="#773adc"
   stop-opacity="1"
   id="stop6" />
		</linearGradient>
	<linearGradient
   inkscape:collect="always"
   xlink:href="#grad0-6"
   id="linearGradient4584"
   x1="0"
   y1="116.14424"
   x2="14.708597"
   y2="116.14424"
   gradientTransform="scale(1.0736202,0.93142804)"
   gradientUnits="userSpaceOnUse" /><linearGradient
   inkscape:collect="always"
   xlink:href="#grad0-6"
   id="linearGradient4586"
   x1="0"
   y1="116.07067"
   x2="14.69928"
   y2="116.07067"
   gradientTransform="scale(1.0729402,0.93201843)"
   gradientUnits="userSpaceOnUse" /><linearGradient
   inkscape:collect="always"
   xlink:href="#grad0-6"
   id="linearGradient4588"
   x1="0"
   y1="116.07067"
   x2="14.69928"
   y2="116.07067"
   gradientTransform="scale(1.0729402,0.93201843)"
   gradientUnits="userSpaceOnUse" /></defs>
	<g
   id="g68"
   transform="translate(-33.997015,-33.998353)">
		<title
   id="title10">Page-1</title>
		<g
   id="group11281-1"
   transform="translate(34,-34.0157)">
			<title
   id="title12">Kubernetes Node Pool.11281</title>
			<g
   id="group11282-2">
				<title
   id="title14">Sheet.11282</title>
				<g
   id="shape11283-3"
   transform="translate(10.7831,-13.713)">
					<title
   id="title16">Sheet.11283</title>
					<path
   d="M 7.87,108.18 0,109.61 v 10.6 l 7.87,1.67 7.49,-2.97 a 0.686538,0.676955 -180 0 0 0.431448,-0.62106 L 15.79,111.33 a 0.692836,0.683165 -180 0 0 -0.46609,-0.6428 z"
   class="st1"
   id="path18"
   inkscape:connector-curvature="0"
   style="fill:url(#linearGradient4584);stroke:none;stroke-width:34;stroke-linecap:butt" />
				</g>
				<g
   id="shape11284-7"
   transform="translate(10.7736,-13.713)">
					<title
   id="title21">Sheet.11284</title>
					<path
   d="m 0,109.61 v 10.6 l 7.96,1.67 v -13.7 z m 3.34,9.8 -2.23,-0.44 v -8.17 l 2.23,-0.37 z m 3.48,0.63 -2.56,-0.41 v -9.32 l 2.56,-0.44 z"
   class="st2"
   id="path23"
   inkscape:connector-curvature="0"
   style="fill:#341a6e;stroke:none;stroke-width:34;stroke-linecap:butt" />
				</g>
				<g
   id="shape11285-9"
   transform="translate(20.678,-30.64)">
					<title
   id="title26">Sheet.11285</title>
					<path
   d="M 7.87,108.18 0,109.62 v 10.59 l 7.87,1.67 7.47,-2.97 a 0.689687,0.68006 -180 0 0 0.431448,-0.62106 L 15.77,111.33 a 0.683389,0.673849 -180 0 0 -0.46609,-0.6428 z"
   class="st1"
   id="path28"
   inkscape:connector-curvature="0"
   style="fill:url(#linearGradient4586);stroke:none;stroke-width:34;stroke-linecap:butt" />
				</g>
				<g
   id="shape11286-12"
   transform="translate(20.6654,-30.64)">
					<title
   id="title31">Sheet.11286</title>
					<path
   d="m 0,109.62 v 10.59 l 7.96,1.67 v -13.7 z m 3.34,9.8 -2.23,-0.45 v -8.17 l 2.23,-0.37 z m 3.47,0.62 -2.56,-0.41 v -9.31 l 2.56,-0.45 z"
   class="st2"
   id="path33"
   inkscape:connector-curvature="0"
   style="fill:#341a6e;stroke:none;stroke-width:34;stroke-linecap:butt" />
				</g>
				<g
   id="shape11287-14"
   transform="translate(30.51,-13.713)">
					<title
   id="title36">Sheet.11287</title>
					<path
   d="M 7.87,108.18 0,109.61 v 10.6 l 7.87,1.67 7.47,-2.97 a 0.686538,0.676955 -180 0 0 0.431448,-0.62106 L 15.77,111.33 a 0.692836,0.683165 -180 0 0 -0.46609,-0.6428 z"
   class="st1"
   id="path38"
   inkscape:connector-curvature="0"
   style="fill:url(#linearGradient4588);stroke:none;stroke-width:34;stroke-linecap:butt" />
				</g>
				<g
   id="shape11288-17"
   transform="translate(30.5005,-13.713)">
					<title
   id="title41">Sheet.11288</title>
					<path
   d="m 0,109.61 v 10.6 l 7.96,1.67 v -13.7 z m 3.34,9.8 -2.23,-0.44 v -8.17 l 2.23,-0.37 z m 3.48,0.63 -2.56,-0.41 v -9.32 l 2.56,-0.44 z"
   class="st2"
   id="path43"
   inkscape:connector-curvature="0"
   style="fill:#341a6e;stroke:none;stroke-width:34;stroke-linecap:butt" />
				</g>
				<g
   id="shape11289-19"
   transform="translate(0,-0.0263567)">
					<title
   id="title46">Sheet.11289</title>
					<path
   d="m 0,115.43 a 0.547971,0.540322 -180 0 0 0.270836,0.4658 L 4.12,118.1 l 6.53,3.73 a 0.535374,0.5279 -180 0 0 0.736926,-0.19563 L 13.59,117.86 a 0.547971,0.540322 -180 0 0 -0.198403,-0.73285 L 5.75,112.76 A 0.538523,0.531006 0 0 1 5.479164,112.29731 L 5.48,77.65 A 0.538523,0.531006 0 0 1 5.750836,77.187311 L 13.39,72.81 a 0.544821,0.537216 -180 0 0 0.198403,-0.729745 L 11.39,68.31 A 0.538523,0.531006 -180 0 0 10.653074,68.111261 L 4.25,71.78 0.27,74.05 a 0.544821,0.537216 -180 0 0 -0.270836,0.462689 z"
   class="st3"
   id="path48"
   inkscape:connector-curvature="0"
   style="fill:#949494;stroke:none;stroke-width:34;stroke-linecap:butt" />
				</g>
				<g
   id="shape11290-21">
					<title
   id="title51">Sheet.11290</title>
					<path
   d="m 13.59,72.06 -2.2,-3.77 a 0.535374,0.5279 -180 0 0 -0.547971,-0.260845 0.522777,0.515479 -180 0 0 -0.270836,0.06521 L 4.17,71.75 0.19,74.03 a 0.579463,0.571375 -180 0 0 -0.192105,0.186318 L 0.06,74.25 a 0.544821,0.537216 -180 0 0 -0.0629851,0.239108 L 5.48,77.63 A 0.535374,0.5279 0 0 1 5.750836,77.167311 L 13.39,72.79 a 0.544821,0.537216 -180 0 0 0.198403,-0.729745 z m 0,45.79 -2.21,3.77 a 0.538523,0.531006 0 0 1 -0.547971,0.26085 0.522777,0.515479 0 0 1 -0.270836,-0.0652 L 4.16,118.15 0.19,115.88 a 0.560568,0.552743 0 0 1 -0.192105,-0.18942 L 0.06,115.65 a 0.547971,0.540322 0 0 1 -0.0629851,-0.24221 L 5.48,112.28 a 0.538523,0.531006 -180 0 0 0.270836,0.46269 L 13.39,117.11 a 0.547971,0.540322 0 0 1 0.198403,0.73285 z"
   class="st4"
   id="path53"
   inkscape:connector-curvature="0"
   style="fill:#a3a3a3;stroke:none;stroke-width:34;stroke-linecap:butt" />
				</g>
				<g
   id="shape11291-23"
   transform="translate(43.0413,-0.0134151)">
					<title
   id="title56">Sheet.11291</title>
					<path
   d="M 13.65,74.51 A 0.547971,0.540322 -180 0 0 13.379164,74.044205 L 9.53,71.84 2.99,68.1 A 0.535374,0.5279 -180 0 0 2.253074,68.295634 L 0.05,72.07 a 0.547971,0.540322 -180 0 0 0.198403,0.73285 L 7.89,77.18 a 0.538523,0.531006 0 0 1 0.270836,0.462689 L 8.16,112.29 a 0.538523,0.531006 0 0 1 -0.270836,0.46269 L 0.25,117.13 a 0.544821,0.537216 -180 0 0 -0.198403,0.72974 L 2.26,121.63 a 0.538523,0.531006 -180 0 0 0.736926,0.19874 L 9.4,118.16 l 3.97,-2.27 a 0.544821,0.537216 -180 0 0 0.270836,-0.46269 z"
   class="st3"
   id="path58"
   inkscape:connector-curvature="0"
   style="fill:#949494;stroke:none;stroke-width:34;stroke-linecap:butt" />
				</g>
				<g
   id="shape11292-25"
   transform="translate(43.0476,-0.0031053)">
					<title
   id="title61">Sheet.11292</title>
					<path
   d="m 0.05,117.85 2.21,3.77 a 0.535374,0.5279 -180 0 0 0.547971,0.26085 0.522777,0.515479 -180 0 0 0.270836,-0.0652 L 9.48,118.15 l 3.97,-2.27 a 0.579463,0.571375 -180 0 0 0.192105,-0.18632 L 13.58,115.65 a 0.544821,0.537216 -180 0 0 0.06298,-0.23911 L 8.17,112.28 a 0.535374,0.5279 0 0 1 -0.270836,0.46269 L 0.26,117.12 a 0.544821,0.537216 -180 0 0 -0.204702,0.72974 z m 0,-45.79 2.21,-3.77 a 0.538523,0.531006 0 0 1 0.547971,-0.260845 0.522777,0.515479 0 0 1 0.270836,0.06521 L 9.48,71.75 l 3.97,2.28 a 0.560568,0.552743 0 0 1 0.185806,0.189423 L 13.58,74.25 a 0.547971,0.540322 0 0 1 0.06298,0.242213 L 8.16,77.63 A 0.538523,0.531006 -180 0 0 7.889164,77.167311 L 0.25,72.79 A 0.547971,0.540322 0 0 1 0.051597,72.05715 Z"
   class="st4"
   id="path63"
   inkscape:connector-curvature="0"
   style="fill:#a3a3a3;stroke:none;stroke-width:34;stroke-linecap:butt" />
				</g>
			</g>
		</g>
	</g>
</svg>

<?xml version="1.0" encoding="UTF-8" standalone="no"?>
<!DOCTYPE svg PUBLIC "-//W3C//DTD SVG 1.1//EN" "http://www.w3.org/Graphics/SVG/1.1/DTD/svg11.dtd">
<!-- Generated by Microsoft Visio, SVG Export Kubernetes Node Pool.svg Page-1 -->
<svg xmlns="http://www.w3.org/2000/svg" xmlns:xlink="http://www.w3.org/1999/xlink" xmlns:ev="http://www.w3.org/2001/xml-events"
		width="1.73185in" height="1.69278in" viewBox="0 0 124.693 121.88" xml:space="preserve" color-interpolation-filters="sRGB"
		class="st5">
	<style type="text/css">
	<![CDATA[
		.st1 {fill:url(#grad0-6);stroke:none;stroke-linecap:butt;stroke-width:34}
		.st2 {fill:#341a6e;stroke:none;stroke-linecap:butt;stroke-width:34}
		.st3 {fill:#949494;stroke:none;stroke-linecap:butt;stroke-width:34}
		.st4 {fill:#a3a3a3;stroke:none;stroke-linecap:butt;stroke-width:34}
		.st5 {fill:none;fill-rule:evenodd;font-size:12px;overflow:visible;stroke-linecap:square;stroke-miterlimit:3}
	]]>
	</style>

	<defs id="Patterns_And_Gradients">
		<linearGradient id="grad0-6" x1="0" y1="0" x2="1" y2="0" gradientTransform="rotate(0 0.5 0.5)">
			<stop offset="0" stop-color="#b77af4" stop-opacity="1"/>
			<stop offset="0.995" stop-color="#773adc" stop-opacity="1"/>
		</linearGradient>
	</defs>
	<g>
		<title>Page-1</title>
		<g id="group11035-1" transform="translate(34,-34.0157)">
			<title>Kubernetes Node Pool.11035</title>
			<g id="group11036-2">
				<title>Sheet.11036</title>
				<g id="shape11037-3" transform="translate(10.7831,-13.713)">
					<title>Sheet.11037</title>
					<path d="M7.87 108.18 L0 109.61 L0 120.21 L7.87 121.88 L15.36 118.91 a0.686538 0.676955 -180 0 0 0.431448 -0.621059
								 L15.79 111.33 a0.692836 0.683165 -180 0 0 -0.46609 -0.642796 L7.87 108.18 Z" class="st1"/>
				</g>
				<g id="shape11038-7" transform="translate(10.7736,-13.713)">
					<title>Sheet.11038</title>
					<path d="M0 109.61 L0 120.21 L7.96 121.88 L7.96 108.18 L0 109.61 ZM3.34 119.41 L1.11 118.97 L1.11 110.8 L3.34
								 110.43 L3.34 119.41 ZM6.82 120.04 L4.26 119.63 L4.26 110.31 L6.82 109.87 L6.82 120.04 Z"
							class="st2"/>
				</g>
				<g id="shape11039-9" transform="translate(20.678,-30.64)">
					<title>Sheet.11039</title>
					<path d="M7.87 108.18 L0 109.62 L0 120.21 L7.87 121.88 L15.34 118.91 a0.689687 0.68006 -180 0 0 0.431448 -0.621059
								 L15.77 111.33 a0.683389 0.673849 -180 0 0 -0.46609 -0.642796 L7.87 108.18 Z" class="st1"/>
				</g>
				<g id="shape11040-12" transform="translate(20.6654,-30.64)">
					<title>Sheet.11040</title>
					<path d="M0 109.62 L0 120.21 L7.96 121.88 L7.96 108.18 L0 109.62 ZM3.34 119.42 L1.11 118.97 L1.11 110.8 L3.34
								 110.43 L3.34 119.42 ZM6.81 120.04 L4.25 119.63 L4.25 110.32 L6.81 109.87 L6.81 120.04 Z"
							class="st2"/>
				</g>
				<g id="shape11041-14" transform="translate(30.51,-13.713)">
					<title>Sheet.11041</title>
					<path d="M7.87 108.18 L0 109.61 L0 120.21 L7.87 121.88 L15.34 118.91 a0.686538 0.676955 -180 0 0 0.431448 -0.621059
								 L15.77 111.33 a0.692836 0.683165 -180 0 0 -0.46609 -0.642796 L7.87 108.18 Z" class="st1"/>
				</g>
				<g id="shape11042-17" transform="translate(30.5005,-13.713)">
					<title>Sheet.11042</title>
					<path d="M0 109.61 L0 120.21 L7.96 121.88 L7.96 108.18 L0 109.61 ZM3.34 119.41 L1.11 118.97 L1.11 110.8 L3.34
								 110.43 L3.34 119.41 ZM6.82 120.04 L4.26 119.63 L4.26 110.31 L6.82 109.87 L6.82 120.04 Z"
							class="st2"/>
				</g>
				<g id="shape11043-19" transform="translate(0,-0.0263567)">
					<title>Sheet.11043</title>
					<path d="M0 115.43 a0.547971 0.540322 -180 0 0 0.270836 0.465795 L4.12 118.1 L10.65 121.83 a0.535374 0.5279 -180
								 0 0 0.736926 -0.195634 L13.59 117.86 a0.547971 0.540322 -180 0 0 -0.198403 -0.73285 L5.75 112.76
								 a0.538523 0.531006 0 0 1 -0.270836 -0.462689 L5.48 77.65 a0.538523 0.531006 0 0 1 0.270836 -0.462689
								 L13.39 72.81 a0.544821 0.537216 -180 0 0 0.198403 -0.729745 L11.39 68.31 a0.538523 0.531006 -180
								 0 0 -0.736926 -0.198739 L4.25 71.78 L0.27 74.05 a0.544821 0.537216 -180 0 0 -0.270836 0.462689 L0
								 115.43 Z" class="st3"/>
				</g>
				<g id="shape11044-21">
					<title>Sheet.11044</title>
					<path d="M13.59 72.06 L11.39 68.29 a0.535374 0.5279 -180 0 0 -0.547971 -0.260845 a0.522777 0.515479 -180 0 0
								 -0.270836 0.0652112 L4.17 71.75 L0.19 74.03 a0.579463 0.571375 -180 0 0 -0.192105 0.186318 L0.06
								 74.25 a0.544821 0.537216 -180 0 0 -0.0629851 0.239108 L5.48 77.63 a0.535374 0.5279 0 0 1 0.270836
								 -0.462689 L13.39 72.79 a0.544821 0.537216 -180 0 0 0.198403 -0.729745 ZM13.59 117.85 L11.38 121.62
								 a0.538523 0.531006 0 0 1 -0.547971 0.260845 a0.522777 0.515479 0 0 1 -0.270836 -0.0652112 L4.16
								 118.15 L0.19 115.88 a0.560568 0.552743 0 0 1 -0.192105 -0.189423 L0.06 115.65 a0.547971 0.540322
								 0 0 1 -0.0629851 -0.242213 L5.48 112.28 a0.538523 0.531006 -180 0 0 0.270836 0.462689 L13.39 117.11
								 a0.547971 0.540322 0 0 1 0.198403 0.73285 Z" class="st4"/>
				</g>
				<g id="shape11045-23" transform="translate(43.0413,-0.0134151)">
					<title>Sheet.11045</title>
					<path d="M13.65 74.51 a0.547971 0.540322 -180 0 0 -0.270836 -0.465795 L9.53 71.84 L2.99 68.1 a0.535374 0.5279
								 -180 0 0 -0.736926 0.195634 L0.05 72.07 a0.547971 0.540322 -180 0 0 0.198403 0.73285 L7.89 77.18
								 a0.538523 0.531006 0 0 1 0.270836 0.462689 L8.16 112.29 a0.538523 0.531006 0 0 1 -0.270836 0.462689
								 L0.25 117.13 a0.544821 0.537216 -180 0 0 -0.198403 0.729745 L2.26 121.63 a0.538523 0.531006 -180
								 0 0 0.736926 0.198739 L9.4 118.16 L13.37 115.89 a0.544821 0.537216 -180 0 0 0.270836 -0.462689 L13.65
								 74.51 Z" class="st3"/>
				</g>
				<g id="shape11046-25" transform="translate(43.0476,-0.0031053)">
					<title>Sheet.11046</title>
					<path d="M0.05 117.85 L2.26 121.62 a0.535374 0.5279 -180 0 0 0.547971 0.260845 a0.522777 0.515479 -180 0 0 0.270836
								 -0.0652112 L9.48 118.15 L13.45 115.88 a0.579463 0.571375 -180 0 0 0.192105 -0.186318 L13.58 115.65
								 a0.544821 0.537216 -180 0 0 0.0629851 -0.239108 L8.17 112.28 a0.535374 0.5279 0 0 1 -0.270836 0.462689
								 L0.26 117.12 a0.544821 0.537216 -180 0 0 -0.204702 0.729745 ZM0.05 72.06 L2.26 68.29 a0.538523 0.531006
								 0 0 1 0.547971 -0.260845 a0.522777 0.515479 0 0 1 0.270836 0.0652112 L9.48 71.75 L13.45 74.03 a0.560568
								 0.552743 0 0 1 0.185806 0.189423 L13.58 74.25 a0.547971 0.540322 0 0 1 0.0629851 0.242213 L8.16
								 77.63 a0.538523 0.531006 -180 0 0 -0.270836 -0.462689 L0.25 72.79 a0.547971 0.540322 0 0 1 -0.198403
								 -0.73285 Z" class="st4"/>
				</g>
			</g>
		</g>
	</g>
</svg>
